X: 13205
T: Fish In The Dull, The
R: reel
M: 4/4
K: Gmajor
|:D/E/F|G2BG FGAF|GABG DEDB|c2Ac BAGB|
AGFG AcBA|G/G/GBG FGAF|GABG D/D/DDB|cedc BdcB|ADFA G2:|
|:d/e/f|g2eg fedf|edce dBGB|c/c/cAc BAGB|AGFG Adef|
g/a/geg fedf|edce dBGB|c2A/B/c BAGB|ADFA G2:|

